frontend/public/assets/material-icons/fortran.svg

<svg xmlns="http://www.w3.org/2000/svg" viewBox="0 0 32 32"><path fill="#ff7043" d="M6 4v2h3a1 1 0 0 1 1 1v18a1 1 0 0 1-1 1H6v2h12v-2h-3a1 1 0 0 1-1-1v-9h4a2 2 0 0 1 2 2v2h2V10h-2v2a2 2 0 0 1-2 2h-4V6h6a4 4 0 0 1 4 4h2V4Z"/></svg>

<svg xmlns="http://www.w3.org/2000/svg" viewBox="0 0 32 32">
  <path d="M6,4V6H9a1,1,0,0,1,1,1V25a1,1,0,0,1-1,1H6v2H18V26H15a1,1,0,0,1-1-1V16h4a2,2,0,0,1,2,2v2h2V10H20v2a2,2,0,0,1-2,2H14V6h6a4,4,0,0,1,4,4h2V4Z" style="fill: #ff7043"/>
</svg>
